images/vk-icon-colored.svg

<svg width="24" height="24" viewBox="0 0 24 24" fill="none" xmlns="http://www.w3.org/2000/svg">
<path fill-rule="evenodd" clip-rule="evenodd" d="M8.27226 0C14.9537 0 8.90859 0 15.59 0C22.2715 0 23.8623 1.6 23.8623 8.32C23.8623 15.04 23.8623 8.96 23.8623 15.68C23.8623 22.4 22.2715 24 15.59 24C8.90859 24 14.9537 24 8.27226 24C1.59082 24 0 22.4 0 15.68C0 8.96 0 12.0725 0 8.32C0 1.6 1.59082 0 8.27226 0Z" fill="#5181B8"/>
<path fill-rule="evenodd" clip-rule="evenodd" d="M19.5414 8.26822C19.6519 7.89741 19.5414 7.62494 19.0152 7.62494H17.2752C16.8328 7.62494 16.6289 7.86031 16.5182 8.11986C16.5182 8.11986 15.6334 10.2891 14.3799 11.6981C13.9744 12.106 13.7901 12.2357 13.5688 12.2357C13.4583 12.2357 13.2982 12.106 13.2982 11.7352V8.26822C13.2982 7.82325 13.1698 7.62494 12.8011 7.62494H10.0668C9.79036 7.62494 9.62409 7.83146 9.62409 8.02718C9.62409 8.44901 10.2508 8.54628 10.3154 9.73286V12.3099C10.3154 12.8749 10.2139 12.9774 9.99274 12.9774C9.40288 12.9774 7.96806 10.7985 7.11708 8.30528C6.95031 7.82069 6.78304 7.62494 6.33835 7.62494H4.59839C4.10126 7.62494 4.00183 7.86031 4.00183 8.11986C4.00183 8.58338 4.59172 10.8823 6.74843 13.9229C8.18623 15.9993 10.212 17.1249 12.0554 17.1249C13.1614 17.1249 13.2982 16.8749 13.2982 16.4443V14.8749C13.2982 14.3749 13.403 14.2752 13.7532 14.2752C14.0113 14.2752 14.4537 14.4049 15.486 15.4061C16.6657 16.5926 16.8602 17.1249 17.5238 17.1249H19.2638C19.7609 17.1249 20.0095 16.8749 19.8661 16.3816C19.7091 15.8899 19.1459 15.1765 18.3985 14.3308C17.9929 13.8487 17.3846 13.3296 17.2003 13.07C16.9422 12.7363 17.0159 12.588 17.2003 12.2914C17.2003 12.2914 19.3202 9.28789 19.5414 8.26822Z" fill="white"/>
</svg>

<svg width="24" height="24" fill="none" xmlns="http://www.w3.org/2000/svg"><path fill-rule="evenodd" clip-rule="evenodd" d="M8.272 0h7.318c6.681 0 8.272 1.6 8.272 8.32v7.36c0 6.72-1.59 8.32-8.272 8.32H8.272C1.591 24 0 22.4 0 15.68V8.32C0 1.6 1.59 0 8.272 0z" fill="#5181B8"/><path fill-rule="evenodd" clip-rule="evenodd" d="M19.541 8.268c.11-.37 0-.643-.526-.643h-1.74c-.442 0-.646.235-.757.495 0 0-.885 2.17-2.138 3.578-.406.408-.59.538-.811.538-.11 0-.27-.13-.27-.5V8.267c0-.445-.13-.643-.498-.643h-2.734c-.277 0-.443.206-.443.402 0 .422.627.52.691 1.706v2.577c0 .565-.101.667-.322.667-.59 0-2.025-2.178-2.876-4.672-.167-.484-.334-.68-.779-.68h-1.74c-.497 0-.596.235-.596.495 0 .463.59 2.762 2.746 5.803 1.438 2.076 3.464 3.202 5.307 3.202 1.106 0 1.243-.25 1.243-.68v-1.57c0-.5.105-.6.455-.6.258 0 .7.13 1.733 1.131 1.18 1.187 1.374 1.719 2.038 1.719h1.74c.497 0 .745-.25.602-.743-.157-.492-.72-1.206-1.468-2.051-.405-.482-1.013-1.001-1.198-1.261-.258-.334-.184-.482 0-.779 0 0 2.12-3.003 2.341-4.023z" fill="#fff"/></svg>
